X: 2145
T: Şedarabân Aranağme (Devrihindî)
C: ?
O: Turkey
F: http://compmusic.upf.edu/node/140
N: sedaraban--aranagme--devrihindi--1--
N: makam= sedaraban
N: form= aranagme
N: usul= devrihindi = 7/4
M: 7/4
L: 1/16
K: C _7/8B _7/8e ^f ^c
Q: 1/4=66
%%MIDI tuningsystem comma53
dedc d4 f4 e2de d2c2 B3A G4  | dedc d4 f4 e2de d2c2 B3c d4  | 
w:  ARANAĞME  |   | 
G3A _B2=c2 d4 c2de d2c2 B3A G4  | \
w:   | 
F2G2 A4 G2F2 E3D FEED D4 z4  | 
w:   | 
dedc d4 f4 e2de d2c2 B3A G4  | dedc d4 f4 e2de d2c2 B3c d4  | 
w:  ARANAĞME  |   | 
G3A _B2=c2 d4 c2de d2c2 B3A G4  | \
w:   | 
F2G2 A4 G2F2 E3D FEED D4 z4  | 
w:   | 
|


